src/images/icons/VK.svg

<svg width="24" height="24" viewBox="0 0 24 24" fill="none" xmlns="http://www.w3.org/2000/svg">
<path d="M12 0C5.3725 0 0 5.3725 0 12C0 18.6275 5.3725 24 12 24C18.6275 24 24 18.6275 24 12C24 5.3725 18.6275 0 12 0ZM16.615 13.5388C16.615 13.5388 17.6763 14.5863 17.9375 15.0725C17.945 15.0825 17.9487 15.0925 17.9513 15.0975C18.0575 15.2762 18.0825 15.415 18.03 15.5188C17.9425 15.6912 17.6425 15.7763 17.54 15.7838H15.665C15.535 15.7838 15.2625 15.75 14.9325 15.5225C14.6788 15.345 14.4288 15.0538 14.185 14.77C13.8213 14.3475 13.5063 13.9825 13.1888 13.9825C13.1484 13.9824 13.1083 13.9888 13.07 14.0013C12.83 14.0788 12.5225 14.4213 12.5225 15.3337C12.5225 15.6188 12.2975 15.7825 12.1388 15.7825H11.28C10.9875 15.7825 9.46375 15.68 8.11375 14.2563C6.46125 12.5125 4.97375 9.015 4.96125 8.9825C4.8675 8.75625 5.06125 8.635 5.2725 8.635H7.16625C7.41875 8.635 7.50125 8.78875 7.55875 8.925C7.62625 9.08375 7.87375 9.715 8.28 10.425C8.93875 11.5825 9.3425 12.0525 9.66625 12.0525C9.72696 12.0518 9.78658 12.0363 9.84 12.0075C10.2625 11.7725 10.1838 10.2662 10.165 9.95375C10.165 9.895 10.1637 9.28 9.9475 8.985C9.7925 8.77125 9.52875 8.69 9.36875 8.66C9.43351 8.57064 9.51883 8.49818 9.6175 8.44875C9.9075 8.30375 10.43 8.2825 10.9488 8.2825H11.2375C11.8 8.29 11.945 8.32625 12.1488 8.3775C12.5613 8.47625 12.57 8.7425 12.5338 9.65375C12.5225 9.9125 12.5113 10.205 12.5113 10.55C12.5113 10.625 12.5075 10.705 12.5075 10.79C12.495 11.2537 12.48 11.78 12.8075 11.9963C12.8502 12.023 12.8996 12.0373 12.95 12.0375C13.0638 12.0375 13.4062 12.0375 14.3337 10.4463C14.6198 9.93407 14.8684 9.40185 15.0775 8.85375C15.0963 8.82125 15.1513 8.72125 15.2163 8.6825C15.2642 8.65804 15.3174 8.64561 15.3713 8.64625H17.5975C17.84 8.64625 18.0063 8.6825 18.0375 8.77625C18.0925 8.925 18.0275 9.37875 17.0112 10.755L16.5575 11.3538C15.6363 12.5613 15.6363 12.6225 16.615 13.5388Z" fill="white"/>
</svg>

<svg width="24" height="24" fill="none" xmlns="http://www.w3.org/2000/svg"><path d="M12 0C5.372 0 0 5.372 0 12s5.372 12 12 12 12-5.372 12-12S18.628 0 12 0zm4.615 13.539s1.061 1.047 1.323 1.534c.007.01.01.02.013.024.107.18.131.318.079.422-.088.172-.388.257-.49.265h-1.875c-.13 0-.402-.034-.732-.261-.254-.178-.504-.47-.748-.753-.364-.422-.679-.787-.996-.787a.38.38 0 0 0-.119.018c-.24.078-.547.42-.547 1.333 0 .285-.226.449-.384.449h-.859c-.292 0-1.816-.103-3.166-1.527-1.653-1.744-3.14-5.241-3.153-5.274-.094-.226.1-.347.311-.347h1.894c.253 0 .335.154.393.29.067.159.315.79.721 1.5.659 1.157 1.063 1.627 1.386 1.627.061 0 .12-.016.174-.044.422-.235.344-1.742.325-2.054 0-.059-.001-.674-.217-.969-.155-.214-.42-.295-.58-.325a.688.688 0 0 1 .25-.211c.29-.145.812-.166 1.33-.166h.29c.562.007.707.043.91.095.413.098.422.364.386 1.276-.011.258-.023.551-.023.896 0 .075-.003.155-.003.24-.013.464-.028.99.3 1.206a.271.271 0 0 0 .142.041c.114 0 .456 0 1.384-1.59a12.14 12.14 0 0 0 .744-1.593c.018-.033.073-.133.138-.171a.332.332 0 0 1 .155-.037h2.226c.243 0 .41.036.44.13.056.149-.01.603-1.026 1.979l-.453.599c-.922 1.207-.922 1.269.057 2.185z" fill="#fff"/></svg>
